X: 74
U:~=!turn!
M:C
L:1/8
K:G
g | b>age g>edB | GBgB A/A/A Aa | b>age g>edB | GBgB G/G/G Gg |
b>age g>edB GBgB A/A/A Aa | bgae gdeB | dBgB G/G/GG |]


